X:185
T: Tommy Peoples'
S: "Where's the Crack v/1" (DJ Taylor)
Z: B.Black
L: 1/8
M: 4/4
R: reel
K: D
DABc d2 BA|d2 BA FE E2|FABc d2 BA|f2 fe dB B2|
DABc d2 BA|d2 BA FE E2|FABc d2 BA|f2 fe dB B2||
ad d2 adbd|ad d2 fe e2|ad d2 bdad|egfe dBBf|
ad d2 adbd| ad d2 fede|fgaf gbaf|egfe dB B2||
